X: 20842
T: Nell of Connaught
%R: air, waltz
B: James Oswald "The Caledonian Pocket Companion" v.2 p.84 #2 (and p.85 top 2 staffs)
Z: 2019 John Chambers <jc:trillian.mit.edu>
M: 3/4
L: 1/8
K: Dm
|:"_slow"A2 |\
d3 ede | f3 agf | e2 c2 c2 | c4 A2 |\
d3 ede | d2 bged | ^c2 A2 A2 | A4 :|
|: (fg) |\
a3 bab | g3 aga | (fe)fagf | {f2}e4 A2 |\
(fe)fagf | (g^f)gbag | a2 d2 d2 | d4 :|
|: A2 |\
d2 (3(fed) d2 | e2 (3(gfe) (3(agf) | (ge) c2 c2 | c2 (TAG) A2 |\
(3(def) d2 d2 | (3(efg) (ea)(fd) | a2 A2 A4 | A4 :|
|: (fg) |\
(3(agf) (c'2a2) | (3(gfe) (c'2 e2) | (3(fed) (ba)(gf) | {f2}e4 e2 |\
(3(fga) f2 ^f2 | (3(gab) g2 ^g2 | a2 d2 d2 | d4 :|
